arrow-expand-horizontal.svg

<svg fill="currentColor" viewBox="0 0 24 24"><path d="M9 11h6V8l4 4-4 4v-3H9v3l-4-4 4-4zm-7 9V4h2v16zm18 0V4h2v16z"/></svg>

<svg  viewBox="0 0 24 24" fill="currentColor"><path  d="M9,11H15V8L19,12L15,16V13H9V16L5,12L9,8V11M2,20V4H4V20H2M20,20V4H22V20H20Z"/></svg>
